X:4
T:太湖船变奏曲 ("Boat on Tai Lake" and Variations)
T:(Bass Hulusi in Bb)
C:江苏民歌
C:Variations by 刘永泰
C:Arranged by 罗子俊
M:2/4
L:1/8
Q:1/4=78
%%barnumbers 0
%%measurenb 0
V:3 clef=treble
%%jianpu 1
%%MIDI program 5
K:Bbmaj
%%visualtranspose -10_of_semitones
d2 f2 | d2 (cd) | f2 (dc) | d4 | d2 f2 | (dc) B2 |
c2 (df) | c3 d | [B2f2] ([Bf][Gd]) | [F3c2] [Gd] | B2 (cd) | B4 | 
c3 d | c3 d | f2 (gf) | d4 | d2 f2 | (dc) B2 | 
c2 (df) | c3 d | [B2f2] ([Bf][Gd]) | [F3c2] [Gd] | B2 (cd) | B4 ||
z/2(F/2G/2F/2) z/2(F/2G/2F/2) | z/2(F/2G/2F/2) c/2F/2d/2F/2 | z/2(F/2G/2F/2) d/2F/2c/2F/2 | 
z/2(F/2G/2A/2 B/2A/2B/2c/2) | z/2(F/2G/2F/2) z/2(F/2G/2F/2) | d/2F/2c/2F/2 B/2(F/2G/2F/2) | 
z/2(F/2G/2F/2) d/2F/2f/2F/2 | z/2(G/2A/2B/2 c/2B/2c/2d/2) |z/2(F/2G/2F/2) B/2G/2A/2G/2 | 
z/2(B/2A/2B/2) G/2B/2A/2c/2 | z/2(F/2G/2F/2) c/2F/2d/2F/2 | z/2(F/2G/2A/2 B/2c/2d/2B/2) | 
z/2(G/2A/2B/2 c/2B/2c/2d/2) | z/2(G/2A/2B/2 c/2B/2c/2d/2) | z/2(F/2G/2F/2) g/2F/2f/2F/2 | 
z/2(F/2G/2A/2 B/2A/2B/2c/2) | z/2(F/2G/2F/2) z/2(F/2G/2F/2) | d/2F/2c/2F/2 B/2(F/2G/2F/2) | 
z/2(F/2G/2F/2) d/2F/2f/2F/2 | z/2(G/2A/2B/2 c/2B/2c/2d/2) | z/2(F/2G/2F/2) z/2(F/2G/2F/2) | 
z/2B/2A/2G/2 F/2G/2B/2d/2 | z/2(F/2G/2F/2) c/2F/2d/2F/2 | Bd B2 ||
dFdF | cFcd | fFdc | dFGB | dFdF | ccBF | 
cFdF | cFFd | BdBG | FdFG | BFcF | BFGB | 
cFFd | cFdF | fFgf | dFGB | dFdF | ccBF | 
cFdF | cFFd | BFBG | FdFG | BFcG | B4 |]
